X:1
T:Title
%%score 1 { 2 | 3 }
L:1/8
Q:1/4=100
M:4/4
K:F
V:1 treble nm="Grand Piano, Soprano"
V:2 treble nm="Choir Pad, Say! Will You Meet Me There"
V:3 bass 
V:1
 F>[FG] [FA]2 [FA]2 [FA]2 | F>[FG] [FA]2 [FA]2 [FA]2 | [FA]>[GB] [Ac]2 [Fc]2 [Fc]2 | %3
w: By~William~James~Kirkpatrick * * * *|||
 [Fd]>[Fc] [FA]2 F2 [EG]2 | [FA]>[GB] [Ac]2 [Ac]2 [Ac]2 | [FA]>[FA] [FB]2 [Fc]2 [Fd]2 | %6
w: |||
 [Fd]2 [Fc]2 F>[FG] [FA]2 | [EG]2 F6 | z2 [Ac]6 | [FA]>[GB] [Fc]2 [Ec]2 [Fc]2- | [Fc]2 [EB]6 | %11
w: |||||
 [EG]>[FA] [EB]2 [EB]2 [FA]2 | [FA]>[GB] [Fc]2 [Bc]2 [Ac]2 | [FA]>[FA] [FB]2 [Fc]2 [Fd]2 | %14
w: |||
 [Fd]2 [Fc]2 F>[FG] [FA]2 | [EG]2 [CF]6- | [CF]2 z2 z4 |] %17
w: |||
V:2
 A,>B, C2 C2 C2 | A,>B, C2 C2 C2 | C>C C2[K:bass] A,2 A,2 | B,>A, C2 =B,2[K:treble] C2 | %4
 C>C C2 F2 F2 | C>C[K:bass] B,2 A,2 B,2 | B,2 C2[K:treble] D>D C2 | B,2 A,6 | z2 C2 F2 F2 | %9
 C>C C2[K:bass] B,2 A,2- | A,2 C2 C2[K:treble] C2 | C>C C2 C2 C2 | C>C C2 E2 F2 | %13
 C>C[K:bass] B,2 A,2 B,2 | B,2 C2[K:treble] D>D C2 | B,2 A,6- | A,2 z2 z4 |] %17
V:3
 F,>F, F,2 F,2 F,2 | F,>F, F,2 F,2 F,2 | F,>F, F,2 F,2 F,2 | F,>F, F,2 D,2 C,2 | %4
 F,>F, F,2 F,2 F,2 | _E,>E, D,2 C,2 B,,2 | B,,2 A,,2 B,,>B,, C,2 | C,2 F,6 | z2 F,2 C,2 F,2 | %9
 z z/ B,/ A,2 G,2 F,2- | F,2 G,2 C,2 G,2 | B,>A, G,2 C,2 F,2 | F,>G, A,2 G,2 F,2 | %13
 _E,>E, D,2 C,2 B,,2 | B,,2 A,,2 B,,>B,, C,2 | C,2 [F,,F,]6- | [F,,F,]2 z2 z4 |] %17

